X: 18325
T: Humours Of Westmeath, The
R: slip jig
M: 9/8
K: Dmajor
|:d3 d2 A F2 D|d3 d2 F G2 E|ABc d2 A F2 A|=c3 c2 E G2 E:|
d2 g f2 d e2 c|d2 g f2 d g2 e|d2 g f2 d e2 A|=c3 E2 F G2 E|
d2 g f2 d e3|d3 fed g2 e|a2 f g2 e dAB|=c3 E2 F G2 B||

